!! 00000] TT[WS
!!!OTL: Chashan qingge
!!!ARE: Asia, China, Shanxi Qinyuan
!! Ethnic Group: Han
!! WII, 60 (2)
!!!SCT: J0487
!!!YEM: Copyright 1995, estate of Helmut Schaffrath.
**kern
*ICvox
*Ivox
*M2/4
*k[]
*C:
{8d
8f
8g
8g
=1
8cc
16a
16cc
4g
=2
8g
16a
16cc
8g
16a
16cc
=3
8g
16e
16g
4d}
=4
{8.d
16f
8g
8a
=5
8cc
8ee
4dd
=6
8.cc
16ee
8dd
8cc
=7
8.dd
16ee
8g
8a
=8
2cc}
==
!!!AGN: Xiaodiao. Qingge, Sichun
!!!ONB: ESAC (Essen Associative Code) Database: CHINA
!!!AMT: simple duple
!!!AIN: vox
!!!EED: Helmut Schaffrath
!!!EEV: 1.0
*-
